!!!COM: Stadler, Maximilian
!!!CDT: 1748///-1833///
!!!COA: Haydn, Joseph
!!!OTL@@IT: Gioco filarmonico
!!!OTL@EN: Philharmonic Joke
!!!OTA@@IT: o sia maniera facile per comporre un infinito numero de minuetti e trio anche senza sapere il contrapunto
!!!OTA@EN: or the Art of Composing an Infinite Number of Minutes Without the Least Knowledge of Counterpoint
!!!PDT: 1781///
!!!PPR: Artaria
!!!SML: Gesellschaft der Musikfreundes, Vienna
!!!PPR2: Luigi Marescalchi
!!!PPP2: Napoli
!!!PDT2: 1790///
**kern	**kern	**kern
*Icello	*Ivioln	*Ivioln
*>[A,A,B,B,A]	*>[A,A,B,B,A]	*>[A,A,B,B,A]
*>norep[A,B]	*>norep[A,B]	*>norep[A,B]
*>A	*>A	*>A
*k[]	*k[]	*k[]
*M3/4	*M3/4	*M3/4
*MM120	*MM120	*MM120
!!section:  I
!!measure:  A
!!diceroll: 5
=40	=40	=40
4C	12c	2cc
.	12e	.
.	12g	.
4C	12c	.
.	12e	.
.	12g	.
4C	12c	16aa
.	.	16gg
.	12e	.
.	.	16ff#
.	12g	.
.	.	16gg
!!section:  I
!!measure:  B
!!diceroll: 7
=157	=157	=157
2F	2c	8a
.	.	8cc
.	.	8ff
.	.	8aa
4E	4c	4gg
!!section:  I
!!measure:  C
!!diceroll: 6
=163	=163	=163
8E	4g	4cc
8G	.	.
8BB	4g	8.dd
8G	.	.
.	.	32cc
.	.	32dd
8C	4g	4ee
8G	.	.
!!section:  I
!!measure:  D
!!diceroll: 6
=45	=45	=45
4GG	16g	16b
.	16b	16dd
.	16a	16cc
.	16g	16b
4D	16b	16dd
.	16a	16cc
.	16g	16b
.	16f#	16a
4G	4g	4b
!!section:  I
!!measure:  E
!!diceroll: 5
=161	=161	=161
4A	4f#	12cc
.	.	12b
.	.	12cc
4F#	4A	12aa
.	.	12ff#
.	.	12dd
4D	4d	12aa
.	.	12ff#
.	.	12dd
!!section:  I
!!measure:  F
!!diceroll: 5
=2	=2	=2
2.BB	4r	8r
.	.	8d
.	4d	8f#
.	.	8g
.	4g	8b
.	.	8dd
!!section:  I
!!measure:  G
!!diceroll: 6
=36	=36	=36
4D	8.cc	8.ee
.	16a	16cc
4E	4g	4b
4DD	4f#	4a
!!section:  I
!!measure:  H
!!diceroll: 4
=24	=24	=24
4G	2.g	2.g
8D	.	.
16r	.	.
16BB	.	.
4GG	.	.
*>B	*>B	*>B
!!section:  II
!!measure:  A
!!diceroll: 5
=90	=90	=90
12C	4e	4g
12E	.	.
12G	.	.
12C	4ee	4gg
12E	.	.
12G	.	.
12AA	4cc#	4ee
12E	.	.
12A	.	.
!!section:  II
!!measure:  B
!!diceroll: 5
=176	=176	=176
4D	12d	8ee
.	12f	.
.	.	8ff
.	12a	.
4D	12d	2dd
.	12f	.
.	12a	.
4D	12d	.
.	12f	.
.	12a	.
!!section:  II
!!measure:  C
!!diceroll: 6
=64	=64	=64
4BB	12B	2g
.	12d	.
.	12g	.
4BB	12B	.
.	12d	.
.	12g	.
4BB	12B	16gg
.	.	16ff
.	12d	.
.	.	16ee
.	12g	.
.	.	16dd
!!section:  II
!!measure:  D
!!diceroll: 7
=29	=29	=29
4r	8cc	8cc
.	8b	8dd
8C	8cc	8ee
8D	8b	8ff
4E	4cc	4gg
!!section:  II
!!measure:  E
!!diceroll: 9
=51	=51	=51
4F	2.c	8.a
.	.	16cc
4A	.	8.ff
.	.	16cc
4F	.	4aa
!!section:  II
!!measure:  F
!!diceroll: 7
=162	=162	=162
2GG	8f	8b
.	8dd	8ff
.	8g	8ee
.	8f	8dd
4AA	4e	16dd
.	.	16cc
.	.	16b
.	.	16cc
!!section:  II
!!measure:  G
!!diceroll: 10
=149	=149	=149
2F	4A	16a
.	.	16cc#
.	.	16dd
.	.	16ff
.	4f	4aa
4G	4d	4b
!!section:  II
!!measure:  H
!!diceroll: 6
=93	=93	=93
4C	2.cc	2.cc
8E	.	.
8G	.	.
4c	.	.
*-	*-	*-
!!!END: 2004/11/01/
